-----BEGIN PGP PUBLIC KEY BLOCK-----

mQINBGpNqhQBEAC0zwuXwBjfT/8//VMkcof4plfGub0Q6fCAi0th/mFzk2BJqTzE
bp1LUQkEXXVLqDHnE7l0IyZbUOCpE2D5LmrOldtdaRbSEjAh+gEU6jbk5BC9g8j8
2CkaBMdlJsoYDcJvpi6Z4Bxu7tsPd55TBAYHbicMKTOcsfjAc72JErnMvlcXwCOm
sEgM9gNXw0mPZFOCqviMtv7nmXN8S5cOtxL4crZFqk/T/sPDZsrLE+zmZEBzL+mw
Ch2ds2XJ0wZ3ApH9RzJunXAmpb6v/wA2lD01nlhJp2L6RKywqpcASDXsOqIkz4c0
47Pz/i6z5ObUraZNbArMItYTZ353PvEWMd0LHwhjbh1IXvriJK1+3OwO5T/DkNbG
RP4l9NVuSanuvJqVk886tfpISk2kr7/d64kt2uyv5AwLAOK3aNtdSRDwI99aYM2J
B/VYB3lLPGWT5NThVHQwVXfZOaPq1KUJ5aOicv5cUGacTLlld0paHwGQDGb/PlTH
pBfMoUoQFEbeegXL2hoLCovDNrdOu/Ndax5qohk8r0264ku84YdFLwz+ITV6P6+D
RHTsWyLBB2ibNAoO5LJlmWKeIPljLhAXD/qeMNC1TG/SSJvgHdh99gbVHRnUlpXR
zebDkYrGmHyMN6ZJm4YBHswoDSLRes3KEi7hz0Q6DdWFmR+BzWweTprMcQARAQAB
tDJzb2x1dGlvbiBwcm92aWRlciAoaGlpaWkpIDx0aGlsb2hpdGhncHRAZ21haWwu
Y29tPokCTgQTAQoAOBYhBFTh8e4fNv2fX3RLnbWdI8dhOvshBQJqTaoUAhsDBQsJ
CAcCBhUKCQgLAgQWAgMBAh4BAheAAAoJELWdI8dhOvshEXcP/3xCxCHBomTHbcgE
E/XhvKJmjPZyHEKR9K+uz9Fmbeeq+/o241tYjdHP8/v6YjmES7+scE6OaUWjKKh9
svBofGhiWfny9/lECnX+zLEBEKRzIu9R6RsZu0xNS3qmVxjoREx+djcWwg5lfs9B
zgGlMW4TxKzbuvz5vBM40a0/lj3QKpqM2lmvUGkFEdjTv13WJn+ZPhlPs1I6L8zd
ymI2XC7hKH338eCt8IZ04iHHSjJQ9t6frpQmXDgd8Cdt9HqU7Dl3p5slJnrmIwlt
G7Xq6YaB1DZvm+JtSKlPGNzivmkyzSxbNQpt3CF3mKHj2BEG5fvhe/8vEJR21WCj
XA/cx/+c4Abrp/VYoEkogfgzeuqaoBxZfV6LhA9Ps3YW03b34qdaSAYMD7b0skmr
w1yXHiQNmH/JnwSkt7d2Er/p5vM8X7SS9q6CihWxx22OwBx3gI67tX87IAWDtEAV
tBlctND+IqVZ+K6eOKRS7u61FatjyTBMfArepR+qKFQrt+88fkbcucOwR3zoV8Y8
/gPdI7vEvNesCmKToFX71LcswOAP6/KSaw58sbMk8Jt0DainPSvNsM27emDwCfMw
W779vTwl10n0q+4voEUbV11SObCD8z3w+F6goUXCHDSF9s8XCwFTfyETt9Zi0oyJ
Fxu3nvycrwPBEBvc/PK/dRFMPNxouQINBGpNqhQBEADGN7eX8OsqQ/5rCXseqMvr
bBAb4+hjrPMeVG8jdENR03QqcX3fi0Ebp3DhwTTxqqHmP/Sc2pARLDPkjTYBFnWQ
JB1YjM+5bV32EqkPHSY2JZZbXnxeZkpx58XZKvmI/2OeEye2GIgRudHf3/yQGHCJ
b6A+6/TxG1JHRlpug8TOyVUw3OejIMTgAHeDSYtjYdFRk5V3zQqe++/KeZZQUpmu
yd7JSA7//CULpxeZV3ghWpSqdITBthI0iFiMlzRkLk6HXz81EsBiwM+Jj1jW7frD
k310AB8gPOdLEyQ2Pek5YRwlC8lyeQYe1MLiie0Ib+3c7qBdGqgbshOC06aMIGvc
ej00Yt+uXPbV8Hqw1MypDptXb0PBERGZroi47809OBa9bwpU35+RNUoimQccCpqC
diti6KePHCrpaReAZGReL+Ji/ZLGjRxMiLG9u8cRivqBpeXU1Qyrhlgu/7A6Ej1Z
/s129cVjqTsa9UmGznKROiL1mXK+Pr6FiaerHzwQ9OJjco+BM9DdRP1K/zInZT5W
970L5DW7hOJfBZJXpx3IKGk2xMx9zWEEgzC8VTwhfaWUhCRBUJ9ABic57bpQCUum
Dhi5Sv6HvfbK43OK+nFM716PM/IOhyJO1NiKaHBGfMoQDlcSh/F7KFO2hjwWU/KW
oeuunTnYCRLWfR37ZlpdhQARAQABiQI2BBgBCgAgFiEEVOHx7h82/Z9fdEudtZ0j
x2E6+yEFAmpNqhQCGwwACgkQtZ0jx2E6+yG7UhAAp1JYwtrurUzou8Z4d1hP66ss
u/wWAl0sXDIDL43Onhe4g/AchOB6qqx0NnktWjwcobE+G8HqIjZNcnJ2CKPPDRnj
ufPAeuDqoI3nJGnRkTq6G80oi49xz5dQGpLLm9clcd+l4wOz+ZeZaz8X3HGS4LW2
z2lFRbPSYlBixseMn6IZZ3hp+TQB5RiykQlrJx3cpfTxz4UjBxJ37BX0f1kzX2kV
T21D5ajIkmspVfgRfoOeckRk77jJXVIAc3aNexyHhp24OO0c8ype7WvL9e0uhcDL
lAfmAEwyIVcZgtGS4C919ok6NWwZeUrFZnXH5nl+TB2LUKbMbLNfvT9CrS/8Z+yf
CCu651E2pUYT6kfw5nzgiJEaFu2XnFmbc3M3ZdXIZG+VDkM3AbjShpRKEl6rKAku
1/cgnwYqGyJg6iYLUrZOb3JO36uGb24e/09VM84tp5TQublh333shmmAF5jXXcZk
l3nRb4/FS1gA9YjlaBF1wIzyIR2AlMo98aG2RovMWP3U63aGlSMLtfplKFCLaByR
Ro9B12OZ5IzAnZ3V+GKacj6ir2QoKDU0X1KFenZQwhZTdZKbac3bgiGkrprlJiLU
1aEUrS/wDYW0OEKvVVnNXf8AstS2L7GGLR2VkumP59masuCNVpCupdUwVsRnKs9D
NirAXwm1yGUnO2/cv0WZAQ0EamG5NgEIAJ6xUMAlv+P43CM3aWnpWBbcPiSKh1K6
+7JWOFLME+6OR7rCz9BvgpZqhMlfuqrsI37xK8C1CY1bwFPE4r2hYWa0P1CRISAo
nAfldAWhk+YMKELuD+a4cqc5xO4izB2ic+iyXCeAysjrRRY07QPhOmkB5j1uX+uF
ouDTAhuykR1IwGWlJFsTleHDJTXvvSiDcuyBKA2SZE1PwlAuAECXbXHwmNh5jvai
ST6YyVsdkz93X60onoG5LvOCaOOdnDaQMviHEyNDoG/zxTJqXd4Dwup857WqrzD+
cdiWlqplXeQHMdY4syTjZPsd5TOWfFwWSgaEFj4V0JfgGgjLuigkN9kAEQEAAbQT
c29sdXRpb24gcHJvdmlkZXIgMYkBTgQTAQoAOBYhBD97qxeyKCGCLI2m+2VLjJNY
Q4doBQJqYbk2AhsDBQsJCAcCBhUKCQgLAgQWAgMBAh4BAheAAAoJEGVLjJNYQ4do
djQH/3L7MPAroCjTndnBwLJjc3eEYzBQNMS/LAJEThsubpl7G5egJ0xPmKgb36mQ
Dfu9cx4RAY6Jjru5VMDDgpEpDu3oeF2G/tsxygmPcci9im8fbfUYy7SbxkIfjnsJ
cvn/XkRGVebEY0DDksvd9pFbsX/A2ZOESpOxeJG1W8cJRjYdd95O3fqpYFDijOs0
i41INRxr91EVfsN/94IfRiuBA3QWvPnXWML9Bsmh3npai5l3JRpbkjd2b4NirFY/
MIbT7fMdNrfHWRvnXuIt7PsIk/Ey/A0DBy5CsZbtZsLRUWTMNV45Vh/5HNYd5+H9
24qkg4hFOrGeqMvWjQut81LNVq6ZAY0EamHo7wEMALMTdzV+PlYjt0stJFNurIf/
XbdCfqUIFge9vZTwVWw095LUXA3s2A3NmWvk9a2WbKRynHBEQmvx7WJCis0wireb
mX8PTNHL9zm0LrpXXw7/NSreUBSDSS8M7riGX3hddpUpzX+XAEebX2DZGAwCjzAh
4igtoRWQa/rAqO+00iKjto+o0ZkHwGN6KPH2wfqjBgSkDNX19yMoeHp5pdUfArrd
KYCee8CpwMqgC1v5EhUutpyIOsRlMQVIXHs9Cl7YPvdPGXUu/IOw7+AxYi8eHp27
UI/w/lqQ8hDufyJmSb7ofn5OWUkvtkHtiP7dpZyQrtaEx2o1izs1YGrth+4SrZpp
8cwqMhRnQymWkKfp9NwOkCJZzA5ZJJc2cmMszucAqtJ2x4tBxBIukARxJV0GegZV
5dzMEQBS9wRbGkXXxztVcnnpVKJ4LIdzOYKyOujim7DGpYCMRRwouPeobE/4X9IR
0zdjlE1RzX8FGr9NxI+GH/N97LlpPg+Gw8pHKfmKmwARAQABtBNzb2x1dGlvbiBw
cm92aWRlciAxiQHOBBMBCgA4FiEENLeWtb2goUsI9fI3nv7JCIsIEmsFAmph6O8C
GwMFCwkIBwIGFQoJCAsCBBYCAwECHgECF4AACgkQnv7JCIsIEmuphgwAgiH4ilHA
WSv0zIQN0wYbCnW1ggk6T8jpnFxeY4mfSyHE/7prKfeLjQJ/s8falXGAYib22ZyB
7VVGiWyyT05jRDyUeqQlxFStnt1caUriz8gd2NogGiMMU3jHgFvy/6E4yXQ1BwyZ
rk+KhR9SzbtSTtu+hH9do6R98n/hFBXzk1XdCmZQ6jOAT2MQVLeFA2qJqNuk01um
WQSXKcsdG+mf/iO6d3hv/9blFEZP/A6g3UUH+XmZkhPhP8287Zv1bUi0WOrzUx30
sP9xpBKZ0y5wD5ChOINuPVG50bUFwFyI+90gFXikRpRQoRpc9FWi9RE9wiTPQIBq
Zq4UBBG0yZ8p72ot4kZr4bkaMNfGNSnGSGTDqJ6mUwckCNKCUK8a+xVfDaWEuLZX
iq2a6Ar+W3dsWCtsMWmxumPlD7nMWAu5nYsrTUmiwQzakHo0w9Jp9ox90WJvHgIV
stWb30tFojZfOU5RMR6R6rtw7xfiUOvzU/wsau4z0Rm2LQVrylwIeEVpuQGNBGph
6O8BDADTox9hNzmxTM/Td3pBtbZ5Wdb0DS0TiH7eNzzi0LLmtrGZoNhTTjsfQD3A
oUNPOY4DBwHR5EOxUV5AuYo9oeskYsga0wV2imAAKx2kmY71f2ffaFYH+zyacCb2
MAe3eyDDEyDBx7Z4Ti3a1YGgi5kgXO273znxGuCkRx9xKihW8Nq5IT8k6Dy/i6UP
2EzUWWhak4UBy8ej+E9Z3U5DAdU0oJI0J9/hS/gIJjoDBqHzm8StGkSbvV0+1BWh
FfmduN0u4nUUMeM/obmLPfzpWwM9Lzt+lU6Avu9yIUXghXXWuTgoN693d0ahbxVj
w24x1Tl9GYFFT2rK+mjN1XKA5ryaAwHadREhiNZJvY1LBwEnHV2aK9DTp/kvdjzv
QO2DZMZbf81x0lYVAfJxFCyJ1qt3NnrgQZz/tHIMmTpvZatevcfC0QjflCwaapjj
6zGpeMB5sdk1W+VHtzCCEVrR1Bji/lvo9JLLwyc1biLU4y02vD6aoAFC2x2dkIGS
B5GL9wkAEQEAAYkBtgQYAQoAIBYhBDS3lrW9oKFLCPXyN57+yQiLCBJrBQJqYejv
AhsMAAoJEJ7+yQiLCBJrNfgL/1xIRV52vto/RIyS/u4V6LV0OtKsvdOXeVWI7EvN
G0NxbVY9ZNOgaf+1/x/wizau4lFQmJmcPDgpLp03qzRVVT+M6VZq4zFSwx5GPng3
XEkPkIg/SW+g6q7ACw8o78zqtSzYdQSrJQZXlq5fCvuD2KsZT8Z2D9OUrvDU+21w
qPJHVHqPNKD2TA/6uFYkW0lTH5k+VFky+3JENJgdQTD7siopO4XjT+WHMqSC1bqi
QTzixZrMmFp9YU2wUIZk2YD5AqBk9+QGLP2ZBtWZVRjTONKs1glsBZBkS1bfBUpN
rxFIj3FXffv/4kptvazSClj7SoqpE9UUiZ5kTp7+KjjWW7ulQPJco9bH6yQH4fu4
hvsMlHzevPfzuYQLJbRaY1SaS9lK1xIVUxIdoJxyed2MBojwKygQptq18MOAz5vV
8/SDuyfBKKRgFcM5jjFGcBlTurIpxfAHQM47hBmDgAiUmieooAfvEVQJ1rPm1UNd
uF0dicoA+YcTw4rhcLFyLapuRZkBjQRqYfKOAQwAuKVxMQ4CqDoPmQrOfCLezgW8
GzR9B9T9KL0nircQwZnd1+Arfo/esJncnfrsoaSU86fJew8smOsVbAxomlIouDIO
SQavk5WcJMKUfrzfm1luPQU1FANVvr24+KpvR4vVQ9on0/pfieokXGJPn+/6odEX
aR1XTMIG03BEO3kuHstm4YxB2vjpom4s7BzWlyQVo9zVQo7fDYCNyirL7ZVS4Vps
4bEN12K750uQYwV1gF5+VRgt4dguUcXFjsDrpCoGk+sRmKRJef9IxWD43Yq85vvn
ZTQX4vR+/Y2/hR6QDNu2SP4xFYm1DJNRU91oWu9zqFMnQUeAJGdhjOyCAgDfIY35
Xv3YQhD6KgEyrNEyMqwLF1/Ypx8NCKdW0JfgHU+l/NhMV7dXwWN+Y3iurhLCx8dF
tBvgYHyZGwulWL2CxQRnYMRcTZ4RyAiMi2PIZk+pcv15N0XeN9tWsDKTGPuzeZYj
jpMd9laH1J4pF05r31XTnFi9TEmJpvar5umCeqKxABEBAAG0CXNvbHV0aW9uMYkB
zgQTAQoAOBYhBMlw8Uy3HqHhzbAKJ+kccQ5DFLpQBQJqYfKOAhsDBQsJCAcCBhUK
CQgLAgQWAgMBAh4BAheAAAoJEOkccQ5DFLpQRPAL/1f2G975NYNLIZ0qdblETMZJ
BRHWknNd/TSEgJUciCqjYVLNWhzpS7S97VQL2hm9Gr+h4DAHjFY287oUDOTVZStG
wvzR4Fs+kU3IdtqWfYKI/LpH3CNp2f1fICgGJEBN3Ung+91Gn9y8FJHJLUvDiKmL
ByLP08l54aWCF11mQTbIZkPqQwy3k52dnFmpKCq7hGuISNL205QSrxU2fQMaO9w7
q4H6qmKMMKfXWwFEh7R4sxy3LQuVYjSQwoT3oa84FCxESXuNt871O6BO2vBxnH07
8LqguA4cclj+tbLx2EAnDD99t2W6Kv8Qmk8OsAA1Q7xlIzYhhzMU0duVCYoeA9Y7
sd6xEibmrFQyKmHLRCJkmK8HNLhmixbwl7Nl+mF87mKXVrqTgkSNP86NSaeWLbp+
MQX17ECMoaUWmD0y3X43MWBZiRTIY+aq4pYlqNujo5SkLzxaQJ3tEPBa+rKuhkZn
hwEBfGTjAWcDySyVpbRn8XeMDVdxamQnuyXv5JM9WLkBjQRqYfKOAQwAqQm56x3S
Jfe1obpDPGxu+KDlHYGxrUDQ1RQXpLurZi+kGfDGk5vDqxgHpLXsCU5ojb1cbhjg
JgZ/t46CNrMTtJzWQBf7i3+QfNfGZIQr5yuDnQ0ZUZSuTWUvKRtXbERwNE2lgz4n
40Ve9A3eF1nuwOh4f2G0w4JJNOOKN8ak9hiNbCnnNXB12SYKNRZq6Bnc/iq2NR6/
9SB2ZCWQioznqiN+9JdQlw4P6q51BqwuaSl6Eayzy91RIf0Ka4nuhFMmiJbFaTDc
FiOYLMSfDruYTXmInVH0qcKHqYj15UI7vT5waQUP8EUpbmjbLtuCp5ELI8RLI0X4
g+Kv87j9kyIFE4hQckgH46OCnlCPT6WAldQVJ/4cTGkaoFMif+vakQ7wG0snVfWs
4eJTPat4G7Gh/fj69CasyWAe+wudPzkLRBdP5zG2rHqOS97zur5Qsx9TkqF08g0W
vurhHMa68xDChCIoYEXGbDINsynOjC7ER0uuA6FfQ83BWpMIFib3rrjpABEBAAGJ
AbYEGAEKACAWIQTJcPFMtx6h4c2wCifpHHEOQxS6UAUCamHyjgIbDAAKCRDpHHEO
QxS6UJjYDACegNMOXiMDlleoYUGXfzMOVqWXnsgKKBLD1c+eTEOwQJnL4qal4LcK
3o/XCl/MV2r6JvjU7V05UBKR7FrI1x5I6yUKozZTCW2YdYfUu6uyQd33aii0j5LW
EPk8RvpgxaCGRJ5T/75BLN2Z13NWSwfMi6Gi3qkDsa970lJ2q2PXEeqgQly1YdPm
9raXlaG419AGCorIglGyIWHKv6VAsurAyAGyhZ9ujiqmg7D7uL0RV7nIRiBWHbd/
HOyjSiwug9Sit1TmV5+EpGFfRYcfUe6IXrzTeRRwV34orC6+RlUN2+H3RVRdNhz7
xz3LoZgS3CJM0qXEZyJseTq9bS+HIinK9vN6wnhL3cmeLgVQUzkiGdntltO1J9Ub
XHQCrwqOrALN57foRhnQCtmB3bqot5wI4EhZDwj9Y4s3nUhpWX3abqhVmII+s2/5
+f+vUYbOHeRR3Dct4q3vrd9SyGW2rakRQc9JuuzRjE7r9iJXH0SYEKe6KUwXK7KB
jZLyzXZYOjmZAY0EamcmlgEMAOmCziSceZcEYHa752bJpUjaFBFwMCYgbz8uGZw5
aGsmyV3hxt9X2VsVStpJOy187ea/5r6fMq0zNM3XP5xUW6BonV1oyRcWAG325bLy
vU0mEj3+9o0Dslf7PNj/486ek4mpi9dj1yYpoxacHPiHoEzTuZx5B1unFAfErrFY
zv84yCIRhw9djpf7wC2bJL7L+OI7bkhGT+azGEVASM2/rroAMZEMtgxiG2TDdLZT
LxvFJ6DqR4Nr8WJTzKFBtQkHE+SZ/sYjci6VD1/OG+WKUd5Vn+UBge4/P7KPJW67
dlykobS+Oq7L/JbFe/ufq5nW58jkXPRshzmkEdwizkNyfxqOODiG+dCrUAQx07Np
25PGwDaWUOHW9WtEd2UEHyRdYN9nq7dGWou+Ce/5nYLOYg5oq1xJ1BWazUd0RETx
55+3+dwX/nSpr2xHrdF95z83GkTG7zAlrg/+LT0CmZ/yYVNWLoWSb/8CTrgjV9fq
qn/pA3YBM3Y8rvLH/Mr6Ht1AXwARAQABtBFzb2x1dGlvbl9wcm92aWRlcokBzgQT
AQoAOBYhBCIu/bAzxSC+OCLJwJ10AM3PwdTrBQJqZyaWAhsDBQsJCAcCBhUKCQgL
AgQWAgMBAh4BAheAAAoJEJ10AM3PwdTruXUMAIL8CAlLo/11ltFRMmJb6XVBaIDy
ipe64sKoIafN3ap/SvXolUIOohJqRXKsTaAEOOYHBP8Ig67wexxNrZ85eabAyDP4
XUJ15+6W/q7pvQeU4q1tRz9WeN449a48kYtUs0cTZN3gN5iQd+F+RUw4Okn0pcQY
T6ZAkftFEnwzp+bqnfBgiLHLwxAlKP3zJ2anFKBfbZrjHeqn4mH9ln6NXOA5lPe5
0jacW2n9Cvc91FbXxYq6tMgb1x48x1uCmToT/oE8g1SPs+jhFIcbXIGVX/VykS7t
5myE6J4RmBuNiMKdKHasLH5LuM7g2idcYPTW+fesCcvzUKWR/Y0/g/k7FV8npc4f
X9isU0WpP7zaUk2aeNWvSsf9suyTSgz/TIPA51++dJuqZqOm2R5YrgCbgeIbie2D
p8ci0ggHlQ6ANowTOBtiksZeD8tIyQayt7aOmNNDdgIRVh2mcDrTWrGKIw+rkylf
W2Zow2Xj/GiP5jJv8lV8vx1RF1cU9YOwr8FmE7kBjQRqZyaWAQwAp24NwwLMlQne
/RLwf+MWs5aP06Eg5+LNt5A4lOl+/S7HPFQBa23qW/+pw4tw7A0gvZ7vS7Si+d4o
REOXYa2BcTV2t0iS3cKVxv6Y4+4ml1dbqcFKOUUFTXjqA6cMr+WNQ+kB4sJANbEh
VeMG1RJEvqx613abVH/Hjww9nBWoQsxW+q7czwo+rKEFDaDqqdTPpOy3+Ov/sY90
Gm/SnvfLROm7DiziRjFk0HntKpTcjex45kEz//PoBa1fod+sIR2q0Mp/Ryk9GrT+
sD1YGn70lOtkyZMk2jdENQVEoYjI+p3Shc1xMuWfSlabIMk4a40cdLoEWxGA+VqE
0zErW7nJhxjtjdPyZWHeMuGESgZyvxuv+dvqR4AE8FH/Qk95KLWF/SID8aV5xwt3
nejV9gvI/Es/EuArqNhT8wdJNJ5/rlRttQuKt/JLkyKfV2VhQqxnLCDdoVqjM/mK
bS3NxgJGoXUutPHVFUN0IlPE7kvbABw0WTciH6wIFZlHybkEtiG3ABEBAAGJAbYE
GAEKACAWIQQiLv2wM8UgvjgiycCddADNz8HU6wUCamcmlgIbDAAKCRCddADNz8HU
6/j/DACTJwREcYsBYzqf1PlA6KMJDnqWUJNhdKX/kcAaAyQ5yVrIiVGCWmP9Wtji
LHXt/WnU7XwOZWPjp0s3heVzoK8sbKuu2p0QKqInvX4gVHzt7PI7N7AgL7JIoNlt
rhCccN2wSF41xm3ZVY6qCvw4i2yABBx2L69GJIOR/hnq0vzAC0wBIsYzpAM3XHB1
B+3QgkzmifvXvt+6ybRaQtBJbNkoFJxirToBGob5ccDT83i2isCRcPIAnaFeR4c4
xMyEIuPMdG1ZV8FtUzG9fyVDAyLbiJkJy3AnTzd3y0cajcH1GoCAvsDoeQifazTS
+2PS2Fv8G8uNtX0QPyoPDn3K2ZIVOyAtJIkZ5oqod3c444F4kHIPj+DHi1nxRCsE
scEm3FcB+GlCoptHAoEJ44j9GPGDQ2oClKmq2TV5XFIKBZGqrofjgGUrXz3amI7i
kQyvLIqGaiIu5CCBLca/ocDO8k5VES2iahODuKL+o4EU1PumN+IJIJGkCMkxipLm
7YdoismZAY0EamcnAQEMAJpOCKcF5C1ODzj5YS37eyy06T01yBv+A05MjU5tR0YP
J0MecVTDcmRKJ7NbioFjkS89FCIhFn4GikWw4m4IcJR6g5Yf+yfF8ZOYQEVay0AS
Qv9xKp03tRRMKI2NCER++olCP3GNQ4741RIdjSutbCBG/rukRwspr3vwgUCqXk3l
J/p653/veVTsTobYSmzqMbEBoJucUT00LE2Y7rmo+qGVI3CTkfMX4ydpzH9ddGef
5oPhu5PdtWDumdiNnAZk4w0IVTqN03zA0Z1/e9FbFhjNpTfFQ6pqc4+vA7GQIvNa
O2MHdNSXWXcMXru03dFwdlbtQ3RNcr7y7eS1EcnxxXsdMlQwxpolyo9PRtSPtcIm
vtI3a9syIwlO4Soa0G5UsJZx984jZBWv6fk9de1f1jtLvIouapiayGjXIt/dmrNg
R0VROFJh+HG/VBAWdPlTORAaC85EeF6piJoc1PaS0GU7SFt3TI/QwU1nx5nlf3x1
VwFC0DXbPh+okiMxnls5WQARAQABtAhzb2x1dGlvbokBzgQTAQoAOBYhBN0cUrfG
VH6U6o5wQc5QfqotbaxGBQJqZycBAhsDBQsJCAcCBhUKCQgLAgQWAgMBAh4BAheA
AAoJEM5QfqotbaxGcVML/A+BlwmgIHgDxc9UB86Xqy7Mvc3qFQx16DL9vvNvIXD8
4pM4Svq2PVox4ZZ4TyEHFXtCg4bUCS7PxsleVcsJfLwlz/ofecI5sRtil7mNm9VV
r161yacghVMWy6q/9m233vowgj6KYGK2WxaesRe6h7wmNWVDSiMZoFhjmSZ6j1FE
RbXmFeFZVkdRB5d3lOjww05fJcVpyi2EHDMu+BW/f6VcLoDcv8vZS/uNQRrhBI5W
GefWgaKQ08x0qMjY0L6v6iQGm2oxGdCM/sPMk+4Cy780Nc9jqjOKsjQ6WVEaZvQ4
PTECNFHc4x3gcwR/7saW2ARMpNIZOHcwd35NtuT9DCupamgZ8MAC6QXsUQTyQMEH
ULODITbLN3WA87mnc7IW7hwNHZIZzo+QHzBRxstLexATwo89EBdSFrkRSq7QgGpV
r49P23raHPMClJTBvsGNMkfCnQ87aNhQLEl2kuz2twL3sA0S/cP1mymphxRiYlaZ
XRGWG62COWq+IiXh9jFd3bkBjQRqZycBAQwA4HcVWBbq+zQyuo/VSztO2RdLtYIS
NyaEXhrf2YzKzO5h4g/ER6tCI79aZfLUMZsqCrhbqZZlMwHiotsiPTGezthzEaYY
vJq3ypymoItp0yOrJA3Qime49xLUHuAYhhlH4jhItXLjAUSYs7RyyD8rjujc6COP
k88ZeG2ruUpYwO0hbX/oy62oSf8LYZ/K9L4N6+B+f3AXDGPzgZuuWGv6qU9bp7pE
0GYTcXCia04PmbnRw5CI+2pmZQDjWYtAHPmT4AYjJy2cezNBdk+xmMPWlALGiBOq
O/KgMZCSzoGqkN7uzxLXvq1XBlQ/sDOn4sPg+TaGEov+etEXRnr6semggw1PO7UC
V2pjkQTzQAuc3t9TXeJCXi6nbXzW7XJAdoDENptECWpdsF7pwuCMxFOVEAsPkppO
MCxU54R8Ze6Ql19swp5+7vUu+ov7kdNveyw0ruJqUdWgpdGFKAG9rUxYlTKcLtlp
KJx5R3fuk9dhdny/b6Ep2Q9WlMISuNscCqu9ABEBAAGJAbYEGAEKACAWIQTdHFK3
xlR+lOqOcEHOUH6qLW2sRgUCamcnAQIbDAAKCRDOUH6qLW2sRm6DC/9MNU1SSPw7
zVyIg1MD2KUabTHo8YfqQeVJDZCyx4KOeCxzDvN77BKgSV7aaWITYQOJ43suLPct
E+dR155cRvuC+t47Q2PFJOQBTeXg5RAmngLC1e6MIqvt3YzktFMHx7PxSQaPzaEO
OOmIWWAlQS/IBYzo3FzWlYWpzOWe39vgJyZmLi+QNSxL4MXZHII/Pd7S0pzDqU5c
UB6E3lsZklmI+6U0Brxy7aWduVltfakGgZVqPlqs50rJq7moVkrZO4+TLF7Zysra
Vf0b0+aDnyUL/OJiSmeJzsm/oL8bWK2wORyt6CwbQABlz89uCgJvCoGL9mfy47US
zT6b7w1dbhJDm4ASHmV39R5BXO26j+lhzGmjcgH07m3v6xc7RSjiCYtrbgWX+RqC
23ksxpo3pZjMmCbM99SD9YY4JZVHtjEwdkRVD7kAfbn15LKdrj77NmWHRY7dqcwc
vcqxuVRnNUGAun2YjIuOSYQuY5a1bl3+cgOm1z5/uNzX87YtRl7O+2KZAY0EamdG
BQEMAPBsfHy/91evJn8b7Fx6uRMIcYco4vkFJcVglE1QluNF/QByu3ow+qp6lwo+
Sqaeb6ZKyXX1wef5O9BFf29di/5p0K3qEJcGCr5bpl+bVJrxtIOzdf6n6zdiVvgQ
dLDdtIZgpLqfRUyyCExFifgAkaHT5JJePxytJsYZrUeUbkzK+fxN8rvLyoem1+q8
9HrrikErxBk6gSEgkzkXTUL9DPBz+V4s9JUBrWiCaBwiMiYAryXnWjF650ww7B0n
gNu32TWej7X/VoE4oCe05zb9mCCMoqsYMauhV0yvAYj2xBhpb1YGjI7KC0MjQvoa
opmqYwuEJPnxCUV9NYaqo9XP0WEaE3GHlTPg6ei+PYY3g9QqORnA2qK8i+IAm9+g
t9/tX9tyqRv0ZxWE4FNx9I2ecqiCGdoujP5pPQReToNAX/Zeu1Cm2FfOCQddT3rR
0D0vVM6rWbUFveMyGswJiuxCjDSQwXNfb0/prvxNJipQbDp5zapaw1aTpWQPzXSA
x65oWwARAQABtAhzb2x1dGlvbokBzgQTAQoAOBYhBPYCCgLjuHHFX6rrpWMMy2jW
aJJmBQJqZ0YFAhsDBQsJCAcCBhUKCQgLAgQWAgMBAh4BAheAAAoJEGMMy2jWaJJm
iAkMALDEFcUP3vOjZn/TpYkWOF3vTWgPAlzSZrwK8SJnkDqOy3dqZ+Sc0t9taJzy
Id8XIJEGaTXXO5UOKSx+k+gyQ3PP4XXy0021vjIcCCxY+tAVeBOdW2yTiKhMy1gG
OgsrjQdaAdGg8/hGClgujbhOkI09hT7xx7ZjwTTQgHukBmZ//jk9A23syl4ykLag
X+qozeVlEQKLjJCjmeeYvuVQy0t9WD4rw0kBlSbmb0Fhz/fM18PNp85cYjDqYD3x
/HPF1WNykWNVKjYiFWLNwSf0Y3oTwIGkBSpHcARBCixnPjBl7lyemWasPGK9+KWB
oxxsGYsDsftWAylzKPCfzOqw6WKVnLUko1z9dwOaHoQ5RMWwY5W+1qFAXMH9/7sr
de2Tq8V2rnY5+73eR8RBRbDVhJd0KlVy6APErINbuzwuv/Nidm6oN5/SHKcynZbQ
LnUW/Q/I1uLe2uqieXeKpflKJfExGdsd2Vi0zz2ke4mbfe6B7nJWFJONiW/iY8Iv
A0KVlLkBjQRqZ0YFAQwAsHCPoUCpyfBCJmbFRefmiTMWAtil6bGv7/CgyiRf9mve
4HEaxVopDXu/MmQ0t81sKPxmWHBajR9iCGu3QEz2qoTZhSe9aVs7KTtDDiyTNJty
kxXkDJ7rBzJsvwhzs6K60iTmCNxnukLQnzT1d13uEwIeQCcFwbwSiXX5R//pSsMw
yUFqG3NQEygbywNnX+xjJtRrerH6YHkBgNe9MgJ6fFbJTIoTW36G4Fr9jAqgbiqr
Y/kCZG+xGkTp0uWPoVIwbWX8/R+WTPADh7PJRL1jihWRSo41hhYEwgYuGyLT722B
4s0vHdkBLO9BSj5wSrCIfeJyoy98uLIirfBNVY8H8au/y/tduGs8C7J6Tabvi50n
RJCK6L2/ZiI/P/al24Ise5cwjoq+01+qgBDE0KXaxTIwMDmVLB8uSbLQC30NBehj
YgrL6rtfuPqZM8NFKtZbnhWu9EKchhzL5A4Ulb6+e5j9w3qh03XRMwsMpiqfC6iU
eOQKulwNuwchvY4B9MYxABEBAAGJAbYEGAEKACAWIQT2AgoC47hxxV+q66VjDMto
1miSZgUCamdGBQIbDAAKCRBjDMto1miSZtYUDACAWQKpPIG+kbURh5vvlr+lGW4F
fHlI4G/XCkie5xAuES3vesEWo+lfX4JAwYI+tgL+STlfVfEFjj0mnHNllrmxEoPu
LvA/hn/0cXFyo9f8dDF/eW2DY14fS1nBEVBuA+uODSIrS8dVDO3lEG1t7n6hrZHO
DEZjd+ruYNkdRRyTfVLKBWxa2SS5vmHtxaA+XL8Z8E23i5BY5IzECHET41uw68By
6/nroZG8yqMf3RK9kOI9RLxNuG/NvORsiRS0m5p84bDrObZ7EGvyZBIkdh0iM1gC
FAocf6fQSVZ0d5c7T3GWYmtohF4t+NT+Vq6p6KPxUi754TJQwbHr7vc2pxX+YCar
fYE6dqoUP1wo7KNIojppP0rslm9WW/c7UxM/3iDz4AG59ZKjVVeDc2FymTKsvn86
InPx+jRgBqq5sLcaWqI6XVVmIXjXJxfZVJt1wSF9hPgCWp6X+r4ReVVv5imXJeeV
6BvyIgv6Nztsmms3I4so1QAioXPoRwNiJ6ZfDvCZAY0EamdP9wEMALZP7aE/4Btv
EF5Meo5qGsnwT2S7cx0MgyfQqOKqXidcW+ejXEAH4Cj38nIdlhs24Gn12vKwRxSz
eFSmM/bizdZI/TsrvDQYy5xCZ+7JvELtNkOjHpGJqC2j7NomUMcQjb4i9bZk4cU9
lUM2XFKpUGQ2Ryfe1MQfkrBOK/OL6XTciC4II0SkQn72et11o76ZSEJElB792rwU
lqg0UaIcWcFfp4JUnPnpRrXId5i5vP8b1HelpFDh6tEFS4QiaMO5GrmuwRSw7pMX
gGjBMSY5sZ+pfYeGGXrJ7Fr4ypBvvOySdMZhd1uROCakTWJRTLeXTYq4c5F4TA2r
DPb6klc86G4GZvjrr7IAB0JyGt0yASWaMsJWQGiiAbZ1hm4pX+NgAdfaJGIkmBxo
DJL5SBZgKH+4lMe71ueWEq8FSh3cjnN/dvAR4d4r4eWYwcOR/yPc5/a+FfvT4IYe
O2CiDiplHUXSpN8AnvM21AW7P7ODfwjJQgjrkj3cdgskU3dcXwU51wARAQABtAhz
b2x1dGlvbokBzgQTAQoAOBYhBNFOifxsXcxe1N9oUxzA1OB7YODlBQJqZ0/3AhsD
BQsJCAcCBhUKCQgLAgQWAgMBAh4BAheAAAoJEBzA1OB7YODlnEIL/0oEMBXbznVM
X6fNyzLEq+rPCExQ8GTgccBzZbrD5qsBl2puA2hJ6pf/jK7ETLH2eGNmro7oiZDy
Jcd44FP4G59jpDnDWuQ+xSzNVrdEGKTEZIYjhkByyrADf/AqxrjBnOzeOqz0yzlS
Ch2w0gih72haA9yGSYBBMqIJzpseUTA9VgjsrjFj5yY25nBXiQCcpJ4uoTMGfGBx
SUUoEEZjAvycVuUCWEhuDUVt18hnvKmmJEtUVxHbp9jpyKCg8s1fk9S5SLgCJFeD
ZREg8kzAkHBE2o6s+KjhZaYu0QAfCwP9JUopQdilr7Ekyb24E8U8VTHmi7Lk/ufs
riYjk2HMJheSfnYgDprXga81d0KdeG7yH/UoeJlwUYEIG4gS3Qccbgq+fVDMLJmr
UHQns/hx7oJNZW/XOhxCdnCpnrhVBYoy1tkFfr7EZXZnpl/7FPguxrdnQwAgjLt2
afWbaypoNKfR7ui/YYz2ZiM4x6s9yBxY5yJ6j213DE/+JQ2kV+HOirkBjQRqZ0/3
AQwAulCNzWz54EX6I9w/zUVKWtjxXMtJLt+51t/IvJIBLpCl3cur5o9Mi74OjaG+
akdrz6NzjmkLypVdyv+89bLfD4kodaoIaNTG2yh6wCwIzUYQuNcqP0W3D3CYeyPv
dwOGZkIlsrPpCs4LVP9klb9clVfInHYM9XJrSWioTFcsc+eX1HzOCAgTq+RXyJyH
aEtYICcZbigv/Bh3IzRc2Va/FqAGAEoo3CsX+Ae3NuVYlX2fiLFnCjqWQ51Etafc
rYSEGFxF/FuOxhHH7fFS9CQ0v7HyTiD6Q/nazj86JKLRUJjdYxBymO22n09+HNvp
qzw5FCwTYZ0Cqm3CpaivE5SsZ7tTz+MpCxQwTmsMFEFFCUX1Gp7secvoCi7LQAPO
F/OLF/SLLRHRsgfZyV2t33F9PJSJ0/T4I4gubg2+ugQkTIYNn8RBwLMQCapd8Kjk
/iwyYTpKnBKSW+xPlFECz/SaoxETwbR3P5IlfFaVCx6vLIWcMBDJ32lJkq6SYub/
9PdPABEBAAGJAbYEGAEKACAWIQTRTon8bF3MXtTfaFMcwNTge2Dg5QUCamdP9wIb
DAAKCRAcwNTge2Dg5TwBC/9So0ciCwiAkeBfbwwwQEPuma/V7uVRafV5wQSX4Xmk
gFHIZXBxSdgII/XTxbO83DrLEmTR0w5u7NE0BpaQrQcT37dIMj+Qc92SXz3egg/e
yDcyHE+Pn3iM6kmwyApvfFOkKAVpQ8RnkdEK1EdOgebd08Wb2rKPoQNoX1I5YylW
f7sdR3snd9MVi8RFPWaZSW4N9hZ2TKI/t610ldJb2aDCQeLSoSh5I7jBnqUP8VWn
AEZkSLwINXF1INXB2+XAx+tkPuDyljfWSBfJZc+UabfQDQYVUVk1s7gxFwf4z/yJ
NDt1Zj5f14XKh0sX1AdzGTMpcPB9xW1tOIjXqgvnzx+oxAhpjVQMkYZZ2BNp2aK1
a3zvmy3EVX9N4cQ3aL/aSI+s+2DFEqHRwQu1/EYSNT7zk0VQQ5T1Y178WpBGvNKB
YpKkMvc8lk3bIwTV31+BscO8oCuikr4aQtkJqIK3d9ZvunPo6Alpzyz5j5KT/pfo
V87J5XXc9dwIR0uqh1i5p8yZAY0EamhX1QEMAOhzuTF5ryaoxV5wQ46w2WIMIKge
Q5vqpA6Lf+NkXCBOnXWOEf970KiDEFJ9IaDMRNR9gYHAovejOijO1vvv3a6P7AZV
RCyJXXlTZsyjIRXlTz+GFrxyaT/SQxLHqVmWLIMs9RJhy/LVzXf3dk7m7XQLU8UX
uw8uZyk07CaoMc9L+dOrLm+9tCJAbcfUZePRT2F0wG4MsfU88fn3Ldha5SoJCfP6
EdjX2rLiTneDTWy5jSee/tU+JEPSC7/TIaZODVhQj8ioA0q41+gq566smLfKulR6
FTH4OCb5JMFWAf2Qr4QQjveQZJCCy6Gv3h2p5qF7SbmZ31wPwPEA0gtvFkYuhjH0
wT+F7fWYwY/nJcEnfsKlYcaaqpxJQJZ9AGo1EjI8kQhrhSR0CF+z16BBJ9WeG+rs
Qc05DofkUlr516J2fPScf1uxuhVsHbOVyuwvNauSykkn1/wX9VO93ILkz2QR19Py
3vZwVpZ7oMWZqC2SPReRyrZlEXenHDlZHmZjxQARAQABtAhzb2x1dGlvbokBzgQT
AQoAOBYhBOZBVrQGUqmwyuEbZP2x2ffkWgd3BQJqaFfVAhsDBQsJCAcCBhUKCQgL
AgQWAgMBAh4BAheAAAoJEP2x2ffkWgd3BNsMAIoS67tGZ4ok7Yrj8sGwyEuhqQfo
IOyt5lwD7Lv2zOiTQYaOF3pDe77/t3vMmpUhAdiwml+EMUPWXhzvHMvnSXk/N6tR
mK7z2kKFpnYQUl1piwcdkeJ7zdbtmhVtndLeQlC+4DDXnSM7uMHKgvfg+BV343f0
1Axrnz44TNjTlw4Tc2xh8o/KvVOIkzz65/zn5OCk32nYEwQLjMNYoKbwxUaQdkxO
+i5ARCSnzWNgZZWHrotVYnVPhY8uxRZPQXTB1d4Q9Lj2xasQ//6VVoAJxHtVhHZQ
8QNQuki3JfQ/I96T9L4A3AbZiZO6s8FABVkTK7qnXXvA4TJI92VkbHMM+QbzbcKx
vETp2XBYOGkcFacVyuscclLcNiDHBe06o7eHxFfNYthY8H9yr+XQdooWnLkwAIZB
xnSJepeb80txV2J2XHem5nUAvDRwN110ZSOsCsxo7R0Mwf/5nB4C3ZuuuxBvQalz
miyOXAs4brhBD1fPRdpcfLIHwPZ0Ul4UEMRPFrkBjQRqaFfVAQwAwI3QlfoGSbkw
WnD1+bj55MahfyuELVWu2EdCZFB7IZY3EE0Vz3X4F6xmay7hSLA59k4QEs5jucA0
RaO+EM0v4Yr8tmZACQ8YXKgPP/ktLmInuvB+olSFVL+TZnYCoI1chksO4pU7sbd7
tu/a8EweECIhVNFbhrBF0+pRbBQa85H41S1rmowgcVd6rJ0qftJzn86WKY5fHxNF
zCYVSQ6eTRTIZ7qvWmoQnPUMmG2m6meyu7DDH1akHicja1wEBiFJIJrauuScAk0Y
DAAP7dZ425UIpMrGShjSoSIH3AUwaCajcN9Y2RA9xjvMHFiNJfxCD4eYW0aYbvUS
zxDvAGd3Krdjxiv+sl4ozKuT8QEInWw8T8MTnogZDjql19dmnp2BytM/xDwYqLzN
UtdW4MndxaOU9rSJXqXddEhe6pg57U6cyDroF8CBS5kT50tvBQH0BISwThs9XWE9
zMthR/TUnlENtbgkdnKCVoJXcA1jPzY7i0LRE+JBIVl8RozPHw3JABEBAAGJAbYE
GAEKACAWIQTmQVa0BlKpsMrhG2T9sdn35FoHdwUCamhX1QIbDAAKCRD9sdn35FoH
d/gqC/0SEuLX5fX/cPmXGXWO5KgQPv9tqugR3ROUx//V8iR1vw552BZnNU7ABIWW
7ERrlwEHsSwRYfot/sYJ0BUglMmtGxaaQw7FrtLshyjll5v56QVm2GChL3XsPrNb
j0fGf1RnByAlf0/GOfsRNlRnbKdlaAs+8So0xdUlcP+hcgzsOaVQysQAfGxzYTd3
NZtjDM0vAGxwWN85M5Cc3sZd/M+97K85clwvcTjimsFny56tvV2g8raWmxFygEuo
nEzsfEbpAf04S346LmSKQfv30l640Xec+C40UYoBhNlF/qQ/QmwA9NhrUNs2zMKV
OWUa4A4pZi9MM4op6D9MXmsCWt9MCCmvRMSEWV7FT1KCiXg2I7fbkYqW12QaS7VS
GZ07cJAsqzZFfBfpM1K2VqnQu8XslZjR4s74sw6QyxfwojSsafWGnI+9Og5wrAqS
m4SnJ+jvB1VSUB3Msi26RQcG/x3DKAVBcKpdPEtmdK8xon1OwPCr6AIFb6dumrTi
URpblM+ZAY0EamhZkAEMAMNId9U8Fr0ly1blXsEf+BFjmagpRdHy17jVzUhfsl5V
KPqsH88K2IoK+PDoHON8Qd2CJ0r4a/SJcxQ0kR9fznK+zOj/NKw0vJ3Gp2lKHpIR
ilHA+MH/T9jWin7wYy6fKJjH7xB0HLhhrMDJghNcF6p9IXEyndkXqupKMUkD+8aq
b83P93082QTc9ufmZtQCX0hrfe2cZv8DVcDKuiV7z2ne2/o1nb3I8YFAaq5hnnnr
W77I/8mAFeEyhbNPGDA9HS4msCpZLymJi4/ROFdsFGYs2SlBMmfn0pKK06PzH4sV
r5SEYaXTwiZMsOVmCDvBS/VLHZaCeqSDo0f68UEUR7QerWSzqd3uQMtluPwaIxpe
JL1HKF6Zdezyp+NzrMUyp/jvyJMr/o2ZUVEq06rNZKlraaH7c0mSITxkvwY7/DsD
LlpdMQz/tYZccay0pM8X0u1TWh8ycYb5bcuVvkmBtUAmAtvXLosLVvq6aByFMWRy
hT8sk4dFr9Yr5VZz/3MxWQARAQABtAhzb2x1dGlvbokBzgQTAQoAOBYhBAEMqnNq
h1eytk0Vlol4fPEXTa6FBQJqaFmQAhsDBQsJCAcCBhUKCQgLAgQWAgMBAh4BAheA
AAoJEIl4fPEXTa6Fd90L+wQFHIA3CTe1ok/HbOwsK+bdaY6W7IDLQ5pz5BKG6XFc
l/DivG40ddnVicKDuxDl0efw573pNySwHt/91RS1uGrtG66or5c3xnDQRC940PnB
8QsBkkBIHF9wvZCe+Ptc8PNof7JFyz5rPNJMNSPjkBKS+gbJ03h2hhXcSCE2f2DZ
2OJm0yemFwp24mR871p9/mpr48zXhAOrJj2tEJso5zBouSjIpe7HbqYcKYHfjogL
ozt6yW/07Y9xYx66FHR/DkKodKVW+RGJw1xjvawQ66BZrnYYpLGiqax1tFVdnWWm
iduPtmQU8R0ivKHj47cI0a2JvysXP+ipZyKWj6D37KOULHz7ZBdpQ0JZY0UZSWCd
XriaHf5GwW3FHqhPxEIOEhWjJM7JQ+FKurDHmCh8C4o4lGBpPdAvmmRm30vHlUU0
OzejadYBJQt6G+HJzZFPdByYXHqUl4Y+tkwHSJ6a8QaX7dsDIqV2N/QFzalRACsD
dLBRQhblR+NqedDOIwQ3dbkBjQRqaFmQAQwAsjz4DHGWxeaeMAHck5hA6B58fh12
XzdchyjsJj+TMvYqFGu+IfSnYsuGtAK49Ko2Lppo0Rcq3bSYbBlcsIbIEWueG47o
yx0qsOJa4p643d3DrO/szRkgeTDrRr3NFPswuQw9/O8ewMfkl/pQC1W6I4a5bxbU
KZSz9WM7R2Eoxtt/7qzkINCv7pvDghS97eCrwFqSotxWk8KtFuOaGJxgp2A2G9Tc
IQgR9QD8+bjUUly2IIc1XQDKaxGSfmbX800n6sLVx84KczFdlp9AK8yaAwSiXnRE
hIugEnfF0+kkQHglr1NvqUMGN+kHi8+zVTuNOeSqYvhFB68NlckztFEklb4M+VSA
soRKr/Rt4W2cda5XUcWNbv4mofCSm/n7yijDWqPWWbDqp4d1/fVuQX76u/HG/r0H
1NZIF0SCK10msRC7MEdacwlEjO9drjG79U49McuIqQfE6KVESHHYUlerNQYrbQIV
apfH83TCTC/OF3G51AndlrNjP6vH7MlgBDfZABEBAAGJAbYEGAEKACAWIQQBDKpz
aodXsrZNFZaJeHzxF02uhQUCamhZkAIbDAAKCRCJeHzxF02uhQlLC/9TLcBxbaSg
GviGT9Ln+DLab7Z2fy2egUc6CyN5MfuTakaswSOW3fhpbb349F9l/0EVMmvkxD2x
E+A4y5ZA8rY58AB+On+PBUMpIZhJ5UMHddJvzV2G+LSyHI2QZzk5VOOsqGcO5XaX
WTvLQO6jwCG7FOfa+NfD5MuHuxXhqXeD0qXujZlWDfWVqfz7oLtTzGAGgNSk/JhI
8ChThcNtNdU45clj4NRHOmVJWn1Y2LMzkTvLG701ByKexJrTKGbKo8MW9c7esc3K
ItbLPT1kyYnxS+sFKZACbNXsVoTAOyu7/Sfyukx1VG7/Q76HCmkcE1AvVF8BIinc
/Lj/15itPszU7t1zhBsL+a3wKlQm/+iqY+K6p37gFizbYtj1kecsugNTmKJ81BBi
Sv6X+t9imZ00IzyLB1YtHUKmeyyCP8ew8iTkz8ryy9LFxL/DPaSi5nVCoiERdMDs
ImmNkRtc11KGHqvgdt63bd1kwVjsoS0EpCEffiVKmm8cbjf/qCYsU7KZAY0Eamhv
ygEMAMdPdI4xnk6bQ1PHh7+ysc97QEUKOI7cOvMrc29XVSVqagwmSPnf6T73n6Uf
HlhAmPO+n52byMQPoSSZf5ZibaUyFwB9714YiZVB8TuVQX2MaVnf4oSrAIDxh+OP
P2ckk/vT/2MM6QnTa88jqVHlC5VkwykDigPqoaUMd+u0Hbg8sKBtDbcGDm8fk4bB
XyZkXTgLMyb+ZjI1EceWI8tPcveZ/EH35Is/6bcKzhyILkysoVRHYccP6a/phLsn
n3mwvd5X0x0C3akT2hzr5YNCDl00OeUNYqPK7rhEQdmEcQjvbbpsF/u+Oa3agNDB
wc6SqR7NzrqLFZVxQBXYa8POcAKIXTZTRR7bHOkXRiy4M6Avnq57E9a1bExR/HpQ
sX7/TA3+QC3op5qKLz6jHG4e3yhAoGybG/iqQILzJSROj7xvUCjpfstXPCoLZakt
N9ziDncrpprReB7OYMepdYtf/gb9OcbtImoWvYwKh5StkOwG+ns8amuhaIGdIarp
gRMWzwARAQABtAhzb2x1dGlvbokBzgQTAQoAOBYhBGXq3sjvsH4rMf7tExXO15Hw
QcNABQJqaG/KAhsDBQsJCAcCBhUKCQgLAgQWAgMBAh4BAheAAAoJEBXO15HwQcNA
DkkL/RDkRbdrtnjbGgyI9EORUCOyVs0YojBv4TLG6TVkfTVBPvqLCUa9ljmMpWBI
ISr8cdi+ZGjnJj/7kVDW72qrs0b6qgQddltoadTPEQW+vSDptETZ65bGbWWlti/1
IPRZKBJb5Klekp1vmijcD7PeTIUUVXS3sNqwz+T6TY+VfJpZdjIJQy3x28fP9wVD
h1thaTQjMkvBpmdxES7VqqC49oVFY8iWETpb0MpM+VeD5UiwXeh5hLg921MH/BHn
sLQyrGyqrLpsHgYcMRdfTodKNZ4rj+So6/7WrsV6bTDUJhvCrmSLWXGMkkm8+L3Q
/o6koLe247VBEUvAwlNxEe3wKajqbAl0iNcNHSa+GZreX3r09CRAmGTBjQgwRE+Y
MPQvWeJnb40CMJBdHECA1uom58mkzEPTwyjoUSHUuBpWq9LJ51rs+reb5rlQi3e4
vZG/mNpQQeJrCe9vHT67xDwIREW48THmZEbezNC6ExFz7o+zYn6yHWvzPQTtdKEv
VFk5WLkBjQRqaG/KAQwAu5P6mTYnbjcw2ZD0oWrMKeJB/C1VwpdLiP4mMIrnmmWB
jkvluIKNLKyCVXc83MWeQu2ZuDBU/WDWOM3oYN3ece7gsVPKrYmPQoLHT0F1k2FF
4UgV86i58gCpEoVb1YkXp7aGPEKXFZM4Yc29zOcOpa97jVpxokiLkyr2I9hjfKT5
vk4vJ6MFn1PIPiRONvLdxPrq4aWbaB0G8Xo9SEtWS4zRTcG/GMnyhV+L/dY88JfC
kClSO7gypFx5iCRCUPceKi1nN77SN7KVDKEJ23Z3QXfIekW+ZqhpNEe+CojAEsC0
jQfJ0E4clQRYcD1eyZtuw3f/F84bR5ZHyNlbl93XyFrSeM3Qe4XqeN3Sydu77Z3Q
LZz9UOm8qGFfyO5lI5gnlaaagaK3v74J79AbhgA5AUGeiu8ypMvm7wVs1hrLENGA
GnBL1xEzVL6vu3kduyKQMSf4w8cWr5LhrLx5GNUXHhYZ2OxdVzsDfds24WKJqO+S
dCk6nKyxWVsLkV0bQEIZABEBAAGJAbYEGAEKACAWIQRl6t7I77B+KzH+7RMVzteR
8EHDQAUCamhvygIbDAAKCRAVzteR8EHDQBBZDADE/OUpp7xYCohLiiZ31CQLTF9N
GN7QwvrkrEbjUuosd+vFM3ZlMD9zdDSu5za0I4rY4htQ9oFBY+GJurKPs6be8vTO
M+oorxweyrmTXgdj14RQy5GV4qq9+ElzjkLAJqg2qIgupJHNe3VLiT06iSMiW551
VJ/IQkzGB2/z9wYYQHcfQYgN4xyq79reVBJhzAR7W14FQxcYYuiVXbj+inoQ5xGe
v+gEIz3HNfEAOx4izi6g0uKZ87ILLSa1bbTGbWTwgxGx51bEFuqKN1s6iqB/FEW7
t2k7jop9voP+aBn1NXUtIx413EdT+Q0vwJuI13Nf3CIMEm72wv2ftzJgrd/oB18Y
Sz2LeRsy/IQnkXx/d5TQlGN9QmNNJI3L4Vh7LTWbPl1c0ki7OgsyESYJUVAvykrh
wa3+wHBzVRBqXa/X8hYCZ8l8W2C6mzYarl/8cPrtzVL8Qxf+1JHK+DeTqRS4kKul
Ex7eP2NJqHaxnueqBfyfSf5/O+fLMlYz5+iBcsGZAY0Eamh4KwEMAOVsvVMMx1bx
AQ8/icXIyAke7a+5HiEfUTksRhyX+Q3vHNZWQRNMniVqxGa/Wu7sf6eXEjEDeSgz
XKfC6H/QWgxmRKnyHLN5/fWz3yttTPIsw5EbvTvyNnlznTx6hA21RyQwx1Sj7X5I
LigajBR+D/nEofLZl1e+/nhFKqiFEbJvBexkSmJsBaxJfbbIa9+VkcbePq+uNp9R
RrucT11Pzj17fwtZCcR5ONJaymS9JtYYorl7VI4iLXnMe1qcDRpWxV57hvjQPK1e
/GEnwH7ch+PZCV6fj0Rs9NjbdrObjb2G3PiZKn/bnJd+0Cvs6THah4TQ5257dLx4
AyG0FSbovf8BDBKMRSjkf3woC3y6zlSZrDwuNct7Gz2JnhJ0VlmkxxTbAOnivbZz
GUesg4C9J9fZN2QPAi89NRYn79pj5e1ms3ydF7IthIOz6MstiUIOtIGosqnKBhwz
Doz/8NlrDAhF+m62o1d/T8VQmLRMhc3XtSvM2tOylhtp9BrDYi58WwARAQABtAhz
b2x1dGlvbokBzgQTAQoAOBYhBKe3QENtV/R+YiyXU/0sovgPRUo6BQJqaHgrAhsD
BQsJCAcCBhUKCQgLAgQWAgMBAh4BAheAAAoJEP0sovgPRUo6X5YL/RCNV5LU3XeW
9aFa6UuIuEUG5NB2BvfxbgvHhDc+2VjuQhCFnBpjGZG1gITcJW+iOWwiigs6Z9qf
L0jSAIUOJdWJBc2WWEv4Wt6NXo1oXG4TPvDvMYm4YI55sHTJ6Agq6AOgzXXeejbc
PNmJ1xhDFWuQz82xc6crhXD9m4vKWh33DehHo5tGCypNNlo+tRwfwUGfRnfBDN/A
AO9U4OCR9SlMeK9uYKYM9f2YPNSglOThw//IuInOXiHFi8olQYrW+AiffufXCeXt
YU10eIcdl47AgCc3ylDcnQlopMjMgSs3bzsUeWsWQqreeWK1g8nUbyy9osjQvllp
2WnWh+kGqhw3E6YTCOHNvyYDnkkYXMokIPNHaQGgBNbtg5LXcWh38m3GPk4S3HBh
dL5SRxAxzkwiYTyrCwHwcZ+rCiTsUi0Mgb27e+6JXDRqFnOhPVpBj+PQRBvYe7H1
Vqa59O++yx8otO1zyT9UURsYLJAu1iYZiiTISURJcQ/DAMAfXvvPWLkBjQRqaHgr
AQwAypIpqEHJwRDkgGV1qjmasxw01U9xQYD56ucNvpI5pGFYl004Xugb8N8p61P0
G4q0dUKvLQZpWkT9i7+iA/W5s9EMveVd7JR7KCCTUVltNaAcz6/8lagur1YvqV60
8uYBESRm/LSv+000wWSceX2BbkmMpcqMpEFAQLdScZMc182BZNJEx9LRgtPruWDk
snn3i0pknXpTzo4GjydkgIo1R/AgnvjdljRMTkG3FaZuSAvluk8vB/N7JuOQXCKf
XTWuT21d4osSc2M6qsns2Dg2P2l5msqHu3So+Z12JE9RYLPwQXYvc6F+yWHdrhwM
8zJ/faujTPFnxe7ZDCiaq5VlxIPEOCjlqMM+t0uD2GOdVhdstOL35WDAFA09ykGd
rTjP5vCwP0xNVHlhw5QhjW+t4CoO9P8hYTFDvptEokPH8DusAGnjaQr5jaWkIdW7
iVJTtG0cVHtDL26mZq5qd1FZsEqsgX0Ur2+t7yliuQH9qx49Rp/tGTkHUuWFTuxb
Z/jNABEBAAGJAbYEGAEKACAWIQSnt0BDbVf0fmIsl1P9LKL4D0VKOgUCamh4KwIb
DAAKCRD9LKL4D0VKOpVEDAC1MnvbeTdSjornNzZf/KoD55qh5gbZPjjJPWcL+Do9
8Bv9h7nJah00mNeovvAjrvL6DEoy7rU/onfFJUVI6rBcVApmI2A7MtKOGZxPmLgu
KurAZBho3DLayW8KCSWK0vTyvBHTB4rErvVgIPtmKnBUbwT0nele3qJewNepKNDR
+iSHelZcRSL4dbt2USsfOiS/8gp48BwgVC6PyoTRmCjhvnt15mLY4Czl8IJI2D+Q
QRm7NmASaYfEL2Kuc7qooI36IRH0Un4l8gTZJFzzJwRsBXwwZowwELpilm0Nyh4V
1ZXr2pl84CTqy0dDPaJp/8gkS/tlcI0PrjCiAPvDxqeetXCnyzM4HGg7mOGueo5a
jvg5SSSLoA4+YkkFaiZHXL71tDBAXfvRG3/lIkud5R/OHbfjwhWegFiHBNSaDaVr
VdVsujnHzgNw01HsLypTKa9NVeZh8RAm/vlWyzs8ZFJG+fUawmC/vnWC58Cd83+/
TFcd8r8ZHdH7RhiuiSgykhCZAY0EamiG+AEMAK5dzSvLvEgTkmbyZTXH5ntFXrPy
euH9H8B+iTC550TOhb3tjh0+LHumZBlFMiMN0c/zydXFReyT9GpVdQXN8pvl1AeW
bHvjnO3WbibhgRN5bbMRCZ2sTVZ+ZXHFzlr/iCD5egqeRtNVR/Ew2t4iH/b5Fd1b
EpKJCc4DNrN32ogvDLXlb3rrSLGt8PHZaaGA/3S0zJU+Hs3hgwVGQGnpgWNHMJqG
WA2B9OgxkrqYqvoz1UF294pC/2womXt2YEHLlbuKsbReVV9kaRCfMEVktw0JvMtn
0axl3Ldsf317qgm55hyzf+szr8SZj0kU2IQwse7jdbjBNPOpBqpNnbsiHKpyDM1l
IZq52Y8QUHb0NDaUAddMW9hmRi45hrcf2JdTsM9ILzzmrQS6rBOV1IH+xpMqw5wk
+erxCO4a6cwpy2+uEGKVLlw6+yqMzBHeEItwnpNpYHcDi7PSDIJ5TlqFisMi/hsb
RXwVkdgA4+4fuNPkj/kTSrvPXz6QvYeaZGQUwwARAQABtAhzb2x1dGlvbokBzgQT
AQoAOBYhBPWNVeS/tFjBUV1T4+LOKVgxrk6bBQJqaIb4AhsDBQsJCAcCBhUKCQgL
AgQWAgMBAh4BAheAAAoJEOLOKVgxrk6bc0EL/15VGWFsjnn5rBtDTbxoKcWgVEi8
9xJ0pIGxpdMPbZGp/xPB/TZRvKCj1UrFEJSungUC329zMKsIMZPXP6IokgRJAVpy
WjdoRTp7/omDaF7PtCWSkal+5F+Fj0KuZRHHqO4xKseV++ooJLVlYO4s6cSNELcV
SVb7O57k3WvcrYawvV/Vaw+AtXdx3iubbJzZW3T1+0ZmYEYGCIsQW/jyIwdyT0Mx
7KWQ7qEbv6PW/HAQQbhP8hO/SiFjNAr24I5PiH4ETdnytzM6pylZ7q4uGn/VmHEn
Ktkk6fR6paewBzK8PxlUZRiRKYL2ukiY9NrfMwKmxsq9Gl+b3M+etK3uW+f+kCgs
KRAt289pC669Mxlpq8GcKum79RD+to+sdWmx4gLHRNxKamuFke/7UYOM4zKeL/2S
QDEN1wc7eZYkyOj6b1gX9x5lb87LX4jAUyu9MnGoPCJIA3tKPDDV1uqUikHvijMG
4WY3UJpHA4cfWlEM3VFaccwkdtYqIN4JFqWh9LkBjQRqaIb4AQwA3ztQzIIy5+vh
p1+9V/9SkeAS8EayIxF0Wn8qJ1Y0RV+B+Bx82f43WlKCasM9bMWS0gS2NI2sANYW
9lIUfZaZojKccm1RJ9O9ndCSTrV5UpPoh7AC3xrW8dlzgH4Xb56eBX8/xf+5jlB0
MvZiGj5eHSb6sDdF4HQoVqwI7SGrK21jyOQ/KqgW9+dAgwTpxvJ4Dme8gKpK7mZV
Y5dOfQs6R5jLIoZnGUhqrTHdrHpP8OcZgNrfsghp6jVx7Z2Sb/hm2O+GcfcvT543
aPAPwD73bMBw0Kd8ab+5BlfCTwUfrUdS25I78jgYTVeOlkHLZC7geL6+OTsZ7sne
c26FahiRtmy6F9I6zGIE/DmOFql/Yiv8Cfy6L7j/2b4BC1Cg2WzWNZwWQuo2/vi1
4jUFWvG8ItMm8UXfXM4wlM8ZxLJo/PfbGsU2YJFgK3xIcIwWsZJobTdns/8giC65
1bm8pgFbM8J9GAzqebPZybPiX4PBHy9LrBUQj/oSLYp+L5U6+Pe7ABEBAAGJAbYE
GAEKACAWIQT1jVXkv7RYwVFdU+PizilYMa5OmwUCamiG+AIbDAAKCRDizilYMa5O
m8uJC/9xn9QDzeHKjK+SsHjQCAwcKahYa0l60EzufN/4c6OpInTmpTMKzwsxTV5P
gyveNIDP6oaL1Nq/gp0LTUdZvxj/oqjdgn6qUVYCffTW56idTfVqNoW4IeQnyTue
QjQxlkzXsKKLDnv3iPtXTatClY3F0VzNY5eoqnk5IcLVINl5CRL7BbsRGSWwEYeg
FYN8oX9QoYONFnU9FxRuqhgl6zUzLpI5GwwouXphRTR6WnLSa8gIzyB5BTmDIITC
R5O3MproVneMZcEXJjfw12rMJT9sP/JfsRr8ZojjYJBQwE/Ej30Q5/jQhG0N4qnA
xHDmfrvtc3M4Beswxcpyw2E4KvgmmPsTylg2FFvwSZMcypZp98p8Chtl8ZHIsril
TXze7j6DiL6U4e5zCnD0+TYkikVx6mnJttt97raqsZm+g4dVZqpZwcKpPX+sidhf
cHBvX0LBxNVn3R419Cx8jYEm+bz1J9Lju2rBe3xLG7l4kNvt0UCak2ReWtcsSdP3
jFvnkT2ZAY0EamwrlQEMAM3jVuaKWfM3Oz9Mb1djbLsLyEZBwQhUHmR/IjX+ehwy
SeNiJyBXBtk5khplJtkgyhXBTQlJrPpE7KzxeIeIFf3NIdiLGv6lVHDtVZIQ7bWh
tMHTBjAr4y4bDM5bTxDDdIUFdMXe5+I8gl2r590kxC9lrNfpImGgb0qDXyycvhYg
Da6XcWcPdAFxqf2SUcKxI/aAxVXx1kYqU4TXM/WYRyWB3peZ2q8i/wL0RL5gMQjY
2qMSGEkb7YDLFSf1R+BsVbqJZ0QlJrFLmtYk9fJxuuTTt0kQMkbJmxMF4v3zcCFa
25Aj5SKItxhJx2tSocNOZtzSvD2VD2YNNT454UWbAvH6QMljArM0KL0Vw8Hg7jMJ
esjP+S/h2bQEzM+x1B/seJAbDZm24i6JBbGs/9K3UqEJ1qYnUZZ/Ae0iKzk7JVq8
HxKIHLW+3Atdtlf+cERGsHPGOEJHNCOLKEekn+2WSi7SVGECejkw/e6b9mW1zEiX
1FksYYxZvgR7DRBEfbR4JQARAQABtAhzb2x1dGlvbokBzgQTAQoAOBYhBOrda/HW
O4SVswIZ3d1Il3dw8dUnBQJqbCuVAhsDBQsJCAcCBhUKCQgLAgQWAgMBAh4BAheA
AAoJEN1Il3dw8dUnGKQL/2b9UTKQaWZWnHCkcaN6BD6WgoP9UHrS5QL5zpchhDq8
BWAL//c6WHrn1/RvwcJgzTxlqJxQq1JMK4ATNOmG3D0ny8H2ICUCRsKg00GHtI8c
bLgUSWv0A4eYkDhx5HaE2fcpgUWZVquiHJKBsFxD/KBddpVGr+1Qv+uQB1/HHjHv
UYJNOLoAj+m232e3Nx6+3IYRxaLZ07F8WhrdoZm1W6igUS8A9R8ACck+1L/Wvcy+
EK+Z4BXbtT8gT+KviL1YMoeZgk83sl2acL0lVWWwnuDiCyqvYZ/RW9NDwHmaZoHj
L17bHhbYcuk10AObAk8IbjFH4WybT5f9YcEz90weYU9uHK9oVz0uNqwq+CcVkfse
BRZ72UnF9hsDOv6E+QAQYXwIkH5u4MsTMymLmUu93Wyfg3nz/7GgHhNX9IcdW3kp
YtDEiPa87CmrrvGyqGQA0hCvIbpPH+gm/e3mD/VmRSRvjdIvtdxFt8TzfoYSfCLN
kzLcHOq5bzIf9BPZvaCGDLkBjQRqbCuVAQwA1HCO0K05S/JOBLVNKN40SBdjqTVn
Cys2KG4+KSoOlf6Runf9UUPL1xCvn/H2Y2onUuVqUGNYo1RW5vm97mTeN8tGQRML
BHV+yzY7jwt1YlkgQzTM7bSf4IFpHrG/RV/smCRqeF5P5YFV3ZKlnCv3KbXj2XPo
9R8JmaVYsIBturrTbMzF4kv7VkctbWkDyg+8aUmk27o3KOGy8qS0InKYAfZbHUe1
fEXm/DzjBlFUTfWscHqcaYKIU8n4Yfl7Glhs16SDiQtscROFnOKmIpQGniELyyDQ
3bXLLU3uD016qdBaMud4xBSUrNpk6xYNn8E6JKsD7o1slSVPntQuwaONIzIe0MQe
V31Dst5kMnym3CC+nc/NNhSxoHgwK8hryALdU8aFPQIjDDQGa44BnDln9gXLSwla
/h4cugnFpcqqRYxV94F1YkejsT3Yj6DHS4K4M7+M+HKIbhycQ2uf6F36Pfc/46nQ
WPXL16Q6npVX8KBXFop1ot0vSEj75RWOcXkhABEBAAGJAbYEGAEKACAWIQTq3Wvx
1juElbMCGd3dSJd3cPHVJwUCamwrlQIbDAAKCRDdSJd3cPHVJ6jUC/9WS1SjUNSW
CuDVqYlHGO2BwZxc5hbqhNKR+lHEWuq+NEaPk1P24a412UU7jvOooHWo8T7eOqVw
SCzaGnl51YVjJ3L4AoT2MbjNU4UJ3yolDDXnCTZ3deBJhuAFfnZZzyinJkABIaMu
SFTeOnF6Dw8cgeVDGuvIVYg9EhHQ7o6oc1eSIGIwy6SvB9rAdESvTvfY2i5GGh1E
Q+woiIjdAgb5+l5h9N6zMLuB+1nYNS896kiNeM1GANoQ5Hs7OlXDHDmZHyIMhl4s
cDtHU5z8V6CEKjk7c9aONdyWXiW4/7oPawvc/pMzgSTqcZwAKXOoFt25xM3KKo4T
vGH7hgnKnppWvRmLNTiJ67B0+w7LL/XkFt4r8JFmPDqXS8rrBD8sjkLvmICH+6Pr
DacIWveAi2Ho9PzDXGKcR4efl5vNq1WREK+fV39pKJKDqFEkm2B4FnssnAFbcDKA
Rb21atIPOqUCmytTxhR3wGKqodSc7OtkAsZuSfgBKJ8pFI3jdolC3pqZAY0Eamw4
NwEMAMenKmfLV4+zWMoPqoqvR4BRvqUv0ytf1dPz8Fc+OBzgyeiCHNgc5I36r1ST
5D3NJGE6h5Zcv9jktjQJlmcgDiE53nyZEAQMyg1Gn2rof6bsG5PviLHS2cfRsooi
Sw4JtM8RQH9mAl7jlkhp76xClkcM1KAsfLLURuu7PeQZ1ED2SKO3p1XNeDx0cYEz
F6486rnD8IpYauGgyNwkHcINFM1eyQFPZzKv6j6NCqid1WoOdq6vA9VeGu8mzrEJ
/Y3X1CVexx6iVOPXEGPmMGhlhcewZzKm0+wFMW9xYYpvVQQ480mqtH2ogluraZQ6
CfNPUIdQDeTtBGXkV4rk+F6L4ZZpcCbEB7xz+NtYMbqJc8/R4qvxSAWSR8BCsSnU
+sQk45wQY6bKpYiYVUDBn2yDYPy9RWfRtGq7WTlCr5SzclUWwlZtdvDSDu1TTHnT
tmfWJOJ0MOITSV8x5Y6Ivs2BOIJQPRt9xMuAG9lNhMpliGt6ObJDnj75BM8qzUSh
nOK92wARAQABtAhzb2x1dGlvbokBzgQTAQoAOBYhBEe6tNyS3NTms47uVxLbZPLW
9sCBBQJqbDg3AhsDBQsJCAcCBhUKCQgLAgQWAgMBAh4BAheAAAoJEBLbZPLW9sCB
r34MAIVO+CYs/6l183Lz2zdpsa7CH3vKC/IpZ2fowBgmupn9OAIzysvXlpWz4xs1
O9Tx+hzywStnw8kFFoTrc/VPWlb8lLE2DHbTmd4w8cF9EWpP3QZH7qAsnsU9vCtd
o0NV0FHFbBYmCVu0x79psPk84YMN4gE5+EB3JbnwVHCgQ1gU7IIrQJoFdNj6kE4C
SbCrLmHsxlkSZP1QN3kYwZWaCyRzYaY6mANJSA/Tay+SE8BRmwUvrkuuHMJVqucq
uA8ELsVP+6hO5kDU52+IxpqPj8vuMDwWN9owrT5jlxqdtkmQzOM9JG7ZXJjxXOBU
cJirp4sxVHHPNMnp5ybXV8xlqGU7dMZ6VuzB7s/Yo28CGjRsx6uVpmIKCIhgKscL
YVOS42Sg7Lv7WnHCf5kBCk2gCVg/jQdg2uMIGAI3eXPa4/2AC8gpgpTGcHeWubxw
OYB3N6FNz7gOx/orQe1TNgxddzmflIEodSZQiTDDgpwYvJ+MuE/M2Msv35M1ho6K
JRaO/rkBjQRqbDg3AQwAtb/AI7YiVXC2CKVQw8b7K2+nkzu1YNlQ1R+sxdBWBxlV
4HNjjBwP4dXyN2RplxD6leQ2YUhVAtmRK47cd0u1DKSrWW0ST+WePQHtzj3TbC/l
zM4V4dJPTDz3Laj+d/BAS0Bs+JB8aC9oYCr1QsfJzr2zSGuvUgYrBxX0szmwee68
P7Z6m9vMYUKCiDbdadz0AIVvyfqGbzOz480GjwMNrTSAy1CoKESJrEyEGraAzWnv
RxfbpWrGLET8/4Et2m32Mg5sDLkqUVFXgIbu5IqbnZhJBeJWaH7up+wwy4SFpwbu
iRHfdIJa49NTqjd1paju+nIXrwwhpiIK6uZ48hzRXijDaWPd1F9hnZoEJCvp2HG3
gxLq1rVXlAFUXEmiaCina9dXbezbO9NejQLfU2vLo4Hsx359FcrqviEHcpgLoTGw
Ix8IIUDOr+bcZwG/ZqTMj89TLhtUCIPwxc12S45ubzPWyexOgnuF6pL/R0TbzCx1
lUZ5wGJsTTscgYZNpnVDABEBAAGJAbYEGAEKACAWIQRHurTcktzU5rOO7lcS22Ty
1vbAgQUCamw4NwIbDAAKCRAS22Ty1vbAgRUoC/0U94xL4qJKe8LTnyz9dKqYMtAF
XyxaGpUQMZ5d3OQBu7piUb15Asn5+kJjSvtqilXu12kHdg/sfwcLOOOVjU69cDGe
ov/KbdOyUkjr+enKxxEeCJZNzhkMg5jL1Z2gviF+VMxhDHCtug3cTNf4eESv9vpW
PwQrbRBRg/Qo0G/NugIT9pv8jQH/WB6LgPjiwtrS2cU7W158zysdoFPVwrEeBTrT
/rRL4hwYKjhZ/WNmQcPfuFm+atD6qPYXci6Rerzs1IKGBYoqeuD9j9CBOFk+IMpp
BmSOZimzpJoxswyVKe96SlfCQPl5lUfWgIHlBdJS5R/C8k43EsLX3PAYoVtktngt
mEfKa8GCsErHOz83sBi4u/gR0Nvo5PKAIasojrtS8XqWYQMaGQ2v6GFjU3PBwBpW
5WPmUgrn/yvLqTubD5yXlF3yAOrYyL91kttuZBjL4+ncNNHCCMILQOoH4v9jlgmU
HyffxMu6fHkFt1c0iXtL/KgAsQeuOxwSXRnSnPE=
=YwZ1
-----END PGP PUBLIC KEY BLOCK-----
